!!!!SEGMENT: pl-wn--mus-iii-65-947-cim--001-009_sowinski-wojciech--swiety-wojciech-meczennik-no-8-duet-aniolow.krn
!!!cenid: 18xx:3602
!!!COM: Sowiński, Wojciech
!!!COM-rismID: pe30008543
!!!CDT: ~1803-1880/03/05
!!!CNT:
!!!GTL: Święty Wojciech męczennik
!!!OTL: No. 8. Duet aniołów
!!!OMV: 009
!!!PDT: 1877
!!!AGN:
!!!YEC: Copyright 2022 Narodowy Instytut Fryderyka Chopina (https://polishscores.org)
!!!YEM: License CC-BY-4.0 (https://creativecommons.org/licenses/by/4.0)
!!!SMS-siglum: PL-Wn
!!!SMS-shelfmark: Mus.III.65.947 Cim.
!!!SMS-shelfwork: 001-009 G
!!!SMS-variant:
!!!SMS-altvar:
!!!NIFC-rismSourceID:
!!!NIFC-rismChildID:
!!!NIFC-islandoraID: none
!!!URL-pdf-islandora:
!!!URL-scan: https://polona2.pl/item/swiety-wojciech-meczennik-oratorjo-w-trzech-czesciach-dzielo-66-spiew-z-fortepianem,MTkzODI1Mzc/242/#item @EN{Scan on Polona} @PL{Skany w portalu Polona}
!!!IIIF: https://polona2.pl/iiif/item/MTkzODI1Mzc/manifest.js
!!!ONB-nifc: UWAGA: oratorium zawiera w źródle 28 numerów podzielonych na 30 plików (rozdzielenie w No. 6 - osobno Recitativo oraz Aria matki i No. 10 - osobno Recitativo, arja i chór oraz Sen). Polecam widok miniatur na Polonie. Uwaga co do obsady: prosimy umieszczać tylko partie występujące w danym numerze (nie całą obsadę oratorium)
!!!AIN: 1 alto 1 piano 1 soprn
!!!key: G
**kern	**kern	**dynam	**kern	**text	**dynam	**kern	**text	**dynam
*group	*group	*group	*group1	*	*	*group1	*	*
*part3	*part3	*	*part2	*	*	*part1	*	*
*staff4	*staff3	*	*staff2	*	*	*staff1	*	*
*I"Fortepian	*I"Fortepian	*	*I"Alt	*	*	*I"Sopran	*	*
*I'pf	*I'pf	*	*I'A	*	*	*I'S	*	*
*Ipiano	*Ipiano	*	*Ialto	*	*	*Isoprn	*	*
*ICklav	*ICklav	*	*ICvox	*	*	*ICvox	*	*
*clefF4	*clefG2	*	*clefG2	*	*	*clefG2	*	*
*k[f#]	*k[f#]	*	*k[f#]	*	*	*k[f#]	*	*
*G:	*G:	*	*G:	*	*	*G:	*	*
*M3/4	*M3/4	*	*M3/4	*	*	*M3/4	*	*
=1	=1	=1	=1	=1	=1	=1	=1	=1
*tremolo	*	*	*	*	*	*	*	*
*xywh-#61:163,580,1949,498	*xywh-#61:163,580,1949,498	*	*	*	*	*	*	*
!	!LO:TX:a:t=Corni	!	!	!	!	!	!	!
!	!LO:TX:a:i:t=Più mosso:rj	!LO:DY:rj	!	!	!	!	!	!
*ped	*	*	*	*	*	*	*	*
32EE-X/LLL	4g 4G/	mf	2.ryy	.	.	2.ryy	.	.
32E-X/	.	.	.	.	.	.	.	.
32EE-/	.	.	.	.	.	.	.	.
32E-/	.	.	.	.	.	.	.	.
32EE-/	.	.	.	.	.	.	.	.
32E-/	.	.	.	.	.	.	.	.
32EE-/	.	.	.	.	.	.	.	.
32E-/	.	.	.	.	.	.	.	.
32EE-/	8gL 8G/	.	.	.	.	.	.	.
32E-/	.	.	.	.	.	.	.	.
32EE-/	.	.	.	.	.	.	.	.
32E-/	.	.	.	.	.	.	.	.
32EE-/	8g 8G/	.	.	.	.	.	.	.
32E-/	.	.	.	.	.	.	.	.
32EE-/	.	.	.	.	.	.	.	.
32E-/	.	.	.	.	.	.	.	.
32EE-/	8g 8G/	.	.	.	.	.	.	.
32E-/	.	.	.	.	.	.	.	.
32EE-/	.	.	.	.	.	.	.	.
32E-/	.	.	.	.	.	.	.	.
32EE-/	8gJ 8G/	.	.	.	.	.	.	.
32E-/	.	.	.	.	.	.	.	.
32EE-/	.	.	.	.	.	.	.	.
32E-X/JJJ	.	.	.	.	.	.	.	.
=2	=2	=2	=2	=2	=2	=2	=2	=2
32EE-X/LLL	4gg 4cc#X 4g\	f	2.ryy	.	.	2.ryy	.	.
32E-X/	.	.	.	.	.	.	.	.
32EE-/	.	.	.	.	.	.	.	.
32E-/	.	.	.	.	.	.	.	.
32EE-/	.	.	.	.	.	.	.	.
32E-/	.	.	.	.	.	.	.	.
32EE-/	.	.	.	.	.	.	.	.
32E-/	.	.	.	.	.	.	.	.
32EE-/	8ggL 8cc# 8g\	.	.	.	.	.	.	.
32E-/	.	.	.	.	.	.	.	.
32EE-/	.	.	.	.	.	.	.	.
32E-/	.	.	.	.	.	.	.	.
32EE-/	8gg 8cc# 8g\	.	.	.	.	.	.	.
32E-/	.	.	.	.	.	.	.	.
32EE-/	.	.	.	.	.	.	.	.
32E-/	.	.	.	.	.	.	.	.
32EE-/	8gg 8cc# 8g\	.	.	.	.	.	.	.
32E-/	.	.	.	.	.	.	.	.
32EE-/	.	.	.	.	.	.	.	.
32E-/	.	.	.	.	.	.	.	.
32EE-/	8ggJ 8cc# 8g\	.	.	.	.	.	.	.
32E-/	.	.	.	.	.	.	.	.
32EE-/	.	.	.	.	.	.	.	.
32E-X/JJJ	.	.	.	.	.	.	.	.
*Xtremolo	*	*	*	*	*	*	*	*
=3	=3	=3	=3	=3	=3	=3	=3	=3
4E-X 4EE-X/	4ccc#X 4bb-X 4gg 4cc#X\	sf	2.ryy	.	.	2.ryy	.	.
8e-X\L 8E-X\	8ccc#L 8bb- 8gg 8cc#\	<	.	.	.	.	.	.
8e-\ 8E-\	8ccc# 8bb- 8gg 8cc#\	.	.	.	.	.	.	.
8e-\ 8E-\	8ccc# 8bb- 8gg 8cc#\	.	.	.	.	.	.	.
*Xped	*	*	*	*	*	*	*	*
8e-\J 8E-\	8ccc#J 8bb- 8gg 8cc#\	[[	.	.	.	.	.	.
=4	=4	=4	=4	=4	=4	=4	=4	=4
[>2.d\ [>2.Bn\ [<2.G\ [<2.D\	2ddd 2bbn 2gg 2dd\	sf >	2.ryy	.	.	2.ryy	.	.
!	!LO:TX:a:t=Fl	!	!	!	!	!	!	!
.	4dd\	]	.	.	.	.	.	.
=5	=5	=5	=5	=5	=5	=5	=5	=5
2.d\_> 2.BnX\_> 2.G\_< 2.D\_<	(>16cc#X\LL	.	2.ryy	.	.	2.ryy	.	.
.	16dd\	.	.	.	.	.	.	.
.	16een\	.	.	.	.	.	.	.
.	16dd\JJ	.	.	.	.	.	.	.
.	16ff#X\LL	.	.	.	.	.	.	.
.	16gg\	.	.	.	.	.	.	.
.	16aa\	.	.	.	.	.	.	.
.	16gg\JJ	.	.	.	.	.	.	.
.	16aa#X\LL	.	.	.	.	.	.	.
.	16bb\	.	.	.	.	.	.	.
.	16cccn\	.	.	.	.	.	.	.
.	16bb\JJ	.	.	.	.	.	.	.
!!LO:LB:g=original
=6	=6	=6	=6	=6	=6	=6	=6	=6
*xywh-#61:73,1004,2028,484	*xywh-#61:73,1004,2028,484	*	*	*	*	*	*	*
2.d\] 2.B\] 2.G\] 2.D\]	16ccc#X\LL	.	2.ryy	.	.	2.ryy	.	.
.	16ddd\	.	.	.	.	.	.	.
.	16eee\	.	.	.	.	.	.	.
.	16ddd\JJ)	.	.	.	.	.	.	.
.	4ggg\;>	.	.	.	.	.	.	.
*	*Xtuplet	*	*	*	*	*	*	*
.	36fff#\LLL	.	.	.	.	.	.	.
.	36eee\	.	.	.	.	.	.	.
.	36ddd\	.	.	.	.	.	.	.
.	36ccc#\	.	.	.	.	.	.	.
.	36bb\	.	.	.	.	.	.	.
.	36aa\	.	.	.	.	.	.	.
.	36gg\	.	.	.	.	.	.	.
.	36ff#\	.	.	.	.	.	.	.
.	36ee\JJJ	.	.	.	.	.	.	.
=7	=7	=7	=7	=7	=7	=7	=7	=7
2.d\ 2.B\ 2.G\ 2.D\	8dd\L	.	2.ryy	.	.	2.ryy	.	.
!	!LO:TX:a:t=P:problem=w źródle 32 w całej tej grupie	!	!	!	!	!	!	!
.	(>80ee\LLL	<	.	.	.	.	.	.
.	80dd\	.	.	.	.	.	.	.
.	80cc#X\	.	.	.	.	.	.	.
.	80dd\	.	.	.	.	.	.	.
.	80ee\	.	.	.	.	.	.	.
.	96ff#\	.	.	.	.	.	.	.
.	96gg\	.	.	.	.	.	.	.
.	96aa\	.	.	.	.	.	.	.
.	96bb\	.	.	.	.	.	.	.
.	96ccc\	.	.	.	.	.	.	.
.	96ddd\JJJJ)	.	.	.	.	.	.	.
.	(>8.eee\L	[	.	.	.	.	.	.
.	48ddd\LL	.	.	.	.	.	.	.
.	48ccc\	.	.	.	.	.	.	.
.	48bb\J	.	.	.	.	.	.	.
.	16aa\	.	.	.	.	.	.	.
.	16gg\	.	.	.	.	.	.	.
.	16ff#\	.	.	.	.	.	.	.
.	16ee\JJ)	.	.	.	.	.	.	.
=8	=8	=8	=8	=8	=8	=8	=8	=8
1r	(>8dd\L	.	0ryy	.	.	0ryy	.	.
.	8ee\	.	.	.	.	.	.	.
.	8dd\	.	.	.	.	.	.	.
.	8cc#X\	.	.	.	.	.	.	.
.	8dd\	.	.	.	.	.	.	.
.	8dd#X\	.	.	.	.	.	.	.
.	8ff#\	.	.	.	.	.	.	.
!	!LO:TX:b:i:t=rall	!	!	!	!	!	!	!
.	8ee\	.	.	.	.	.	.	.
1ryy	8ccn\	.	.	.	.	.	.	.
.	8a\	.	.	.	.	.	.	.
.	8f#\	.	.	.	.	.	.	.
.	8g\	.	.	.	.	.	.	.
.	8f#\	.	.	.	.	.	.	.
.	8e\	.	.	.	.	.	.	.
.	8f#\	.	.	.	.	.	.	.
.	8a\	.	.	.	.	.	.	.
2ryy	12cc\	.	2ryy	.	.	2ryy	.	.
.	12ee\	.	.	.	.	.	.	.
.	12ddn\J)	.	.	.	.	.	.	.
.	(>4cc#X\	pp	.	.	.	.	.	.
4ryy	4ccn\)	.	4ryy	.	.	4ryy	.	.
!!LO:LB:g=original
==9	==9	==9	==9	==9	==9	==9	==9	==9
*M12/8	*M12/8	*	*M12/8	*	*	*M12/8	*	*
*xywh-#61:128,1908,1928,439	*xywh-#61:128,1908,1928,439	*	*xywh-#61:171,1709,1912,231	*	*	*xywh-#61:119,1452,1992,322	*	*
!	!	!	!LO:TX:a:i:t=ASTERY.	!	!	!LO:TX:a:i:t=PROMIEŃ.	!	!
!	!LO:TX:a:i:t=Andte. grazioso.	!	!	!	!	!LO:TX:a:i:t=Andte. grazioso.	!	!
*ped	*	*	*	*	*	*	*	*
(>8G\L	[>4.b [<4.g/	p	4.g/	Bos-	.	4.b\	Bos-	.
8F#\	.	.	.	.	.	.	.	.
8G\J	.	.	.	.	.	.	.	.
4GG/)	4b] 4g/]	.	4g/	-ka	.	4b\	-ka	.
8r	8b 8g/	.	8g/	dzie-	.	8b\	dzie-	.
(>8G\L	4.b 4.g/	.	4g/	-wi-	.	4b\	-wi-	.
8F#\	.	.	.	.	.	.	.	.
8G\J	.	>	8g/	-co	.	8b\	-co	.
.	(<32qqbLLL 32qqg/	.	.	.	.	.	.	.
.	32qqccJJJ 32qqa/	.	.	.	.	.	.	.
4GG/)	8ddL 8b/)	.	8b/	spoj-	.	8dd\	spoj-	.
.	8cc 8a/	.	8a/	-rzyj	.	8cc\	-rzyj	.
*Xped	*	*	*	*	*	*	*	*
8ryy	8bJ 8g/	]	8g/	na	.	8b\	na	.
=10	=10	=10	=10	=10	=10	=10	=10	=10
*ped	*	*	*	*	*	*	*	*
(<8D/L	[>4.a [<4.f#/	.	[<4.d/	kwiat	.	[<4.a/	kwiat	.
8C#X/	.	.	.	.	.	.	.	.
8D/J	.	.	.	.	.	.	.	.
4DD/)	8a]L 8f#/]	.	4d/]	.	.	4a/]	.	.
.	8d/	.	.	.	.	.	.	.
8r	8dd/J	.	8r	.	.	8r	.	.
(<8D/L	4.a 4.f#/	.	4r	.	.	4r	.	.
8C#/	.	.	.	.	.	.	.	.
8D/J	.	.	8r	.	.	8r	.	.
4DD/)	8bL 8g/	.	8g/	co	.	8b/	co	.
.	8a 8f#/	.	8f#/	mdlą	.	8a/	mdlą	.
*Xped	*	*	*	*	*	*	*	*
8ryy	8bJ 8fn/	.	8fn/	źre-	.	8b/	źre-	.
=11	=11	=11	=11	=11	=11	=11	=11	=11
(<8C/L	[>4.cc [<4.e/	.	2.e/	-ni-	.	2.cc/	-ni-	.
8BB/	.	.	.	.	.	.	.	.
8C/J	.	.	.	.	.	.	.	.
4CC/)	8cc]L 8e/]	.	.	.	.	.	.	.
.	8g 8e/	.	.	.	.	.	.	.
8r	8ccJ 8g/	.	.	.	.	.	.	.
(<8C/L	4ee 4g/	.	4e/	-cą	.	4g/	-cą	.
8BB/	.	.	.	.	.	.	.	.
8C/J	8r	.	8r	.	.	8r	.	.
4CC/)	4g 4e/	.	8e/	że-	.	8g/	że-	.
.	.	.	8e/	-gna	.	8g/	-gna	.
8r	8a 8f#/	.	8f#/	ten	.	8a/	ten	.
=12	=12	=12	=12	=12	=12	=12	=12	=12
(>8G\L	[>4.b [<4.g/	.	[<4.g/	świat!	.	[>4.b\	świat!	.
8F#\	.	.	.	.	.	.	.	.
8G\J	.	.	.	.	.	.	.	.
4GG/)	8b]L 8g/]	.	4.g/]	.	.	4.b\]	.	.
.	8d/	.	.	.	.	.	.	.
8r	8dd/J	.	.	.	.	.	.	.
(>8G\L	4b 4g/	.	4r	.	.	4r	.	.
8F#\	.	.	.	.	.	.	.	.
8G\J	8ryy	.	8r	.	.	8r	.	.
4GG/)	8bL 8g/	.	8g/	U-	.	8b\	U-	.
.	8b 8g/	.	8g/	-proś	.	8b\	-proś	.
8r	8bJ 8g/	.	8g/	nie	.	8b\	nie-	.
!!LO:LB:g=original
=13	=13	=13	=13	=13	=13	=13	=13	=13
*xywh-#61:141,2712,1980,403	*xywh-#61:141,2712,1980,403	*	*xywh-#61:200,2526,1877,240	*	*	*xywh-#61:128,2302,1989,269	*	*
(>8F#\L	2.dd 2.a 2.d/	.	2.f#/	-bio-	.	2.dd\	-bio-	.
8E#X\	.	.	.	.	.	.	.	.
8F#\J	.	.	.	.	.	.	.	.
4FF#/)	.	.	.	.	.	.	.	.
8r	.	.	.	.	.	.	.	.
*ped	*	*	*	*	*	*	*	*
(>8E#\L	[>4.cc#X 4.g [<4.e/	.	4.g/	-sy	.	4.cc#X\	-sy	.
8D#X\	.	.	.	.	.	.	.	.
8E#\J	.	.	.	.	.	.	.	.
4EE/)	8cc#]L 8g 8e/]	.	8e/	O	.	8cc#\	O	.
.	8cc# 8e/	.	8g/	kro-	.	8cc#\	kro-	.
*Xped	*	*	*	*	*	*	*	*
8r	8eeJ 8g/	.	8cc#X\	-plę	.	8ee\	-plę	.
=14	=14	=14	=14	=14	=14	=14	=14	=14
(<8AA/L	[>4.gg [>4.ee [<4.cc#X [<4.g\	.	(>[>4.ee^>\	ro-	.	[>4.gg^>\	ro-	.
8GG#X/	.	.	.	.	.	.	.	.
8AA/J	.	.	.	.	.	.	.	.
4AAA/)	8gg]L 8ee] 8cc#] 8g\]	.	8ee\L]	.	.	8gg\L]	.	.
.	8ff# 8dd\	.	8dd\	.	.	8ff#\	.	.
8r	8eeJ 8cc#\	.	8cc#X\J)	.	.	8ee\J	.	.
(>8D\L	(>4.ee 4.cc# 4.a (<4.g\	.	4.cc#^>\	.	.	4.ee^>\	.	.
8C#X\	.	.	.	.	.	.	.	.
8D\J	.	.	.	.	.	.	.	.
4DD/)	4dd 4a 4f#\))	.	4dd\	-sy,	.	4dd\	-sy,	.
8r	8r	.	8r	.	.	8r	.	.
=15	=15	=15	=15	=15	=15	=15	=15	=15
(8cn\L	[>4.ee [<4.ccn\	.	4.ccn\	O	.	4.ee\	O	.
8B\	.	.	.	.	.	.	.	.
8c/J	.	.	.	.	.	.	.	.
4.D\)	8ee]L 8cc\]	.	(>8cc\L	kro-	.	(>8ee\L	kro-	.
.	8ff# 8dd\	.	8dd\J)	.	.	8ff#\J)	.	.
.	8eeJ 8cc\	.	8cc^>\	-plę	.	8ee^>\	-plę	.
(8B\L	[>4.dd [<4.b\	.	4.b\	ro-	.	4.dd\	ro-	.
8A#X\	.	.	.	.	.	.	.	.
8B/J	.	.	.	.	.	.	.	.
4.D\)	8dd]L 8b\]	.	4.g/	-sy:	.	4.b\	-sy:	.
.	8b 8g\	.	.	.	.	.	.	.
.	8bJ 8g\	.	.	.	.	.	.	.
=16	=16	=16	=16	=16	=16	=16	=16	=16
(>8F#\L	4cc 4a\	.	4.a/	Miéj	.	4.cc\	Miéj	.
8E\	.	.	.	.	.	.	.	.
8D\J	8ryy	.	.	.	.	.	.	.
.	(<32qqbLLL 32qqg/	.	(<16qqg/LL	.	.	(<16qqb/LL	.	.
.	32qqccJJJ 32qqa/	.	16qqa/JJ	.	.	16qqcc/JJ	.	.
4.G\)	8ddL 8b\)	.	(<8b/L)	li-	.	8dd\L)	li-	.
.	8cc 8a\	.	8a/J	.	.	8cc\J	.	.
.	8bJ 8g\	.	8g/)	.	.	8b\	.	.
(>8d\L	4.a 4.f#/	.	4.d/	-tość,	.	4.a/	-tość,	.
8c#X\	.	.	.	.	.	.	.	.
8d\J	.	.	.	.	.	.	.	.
4.D\)	4.a#X 4.f#/	.	4.d/	miéj!	.	4.a#X/	miéj!	.
!!LO:PB:g=original
=17	=17	=17	=17	=17	=17	=17	=17	=17
*xywh-#62:360,603,1983,421	*xywh-#62:360,603,1983,421	*	*xywh-#62:430,397,1975,247	*	*	*xywh-#62:373,128,2089,335	*	*
!	!	!LO:HP:b=2	!	!	!	!	!	!
(>8G\L	[>4.b [<4.g\	<	4.g/	Mat-	.	4.b\	Mat-	.
8F#\	.	.	.	.	.	.	.	.
!	!	!LO:HP:b=2	!	!	!	!	!	!
8G\J	.	[>	.	.	.	.	.	.
4GG/)	4b] 4g\]	]]	4b\	-ko	.	4g/	-ko	.
8r	8b 8g\	.	8b\	mi-	.	8g/	mi-	.
!	!	!LO:HP:b=2	!	!	!	!	!	!
(>8G\L	4.b 4.g\	<	4b\	-łoś-	.	4g/	-łoś-	.
8F#\	.	.	.	.	.	.	.	.
!	!	!LO:HP:b=2	!	!	!	!	!	!
8G\J	.	[>	8b\	-ci,	.	8g/	-ci,	.
.	(<32qqbLLL 32qqg/	.	.	.	.	.	.	.
.	32qqccJJJ 32qqa/	.	.	.	.	.	.	.
4GG/)	(>8ddL 8b\)	]	8dd\	Znad	.	8b/	Znad	.
.	8cc 8a\	.	8cc\	ziem-	.	8a/	ziem-	.
8r	8bJ 8g\)	.	8b\	-skich	.	8g/	-skich	.
=18	=18	=18	=18	=18	=18	=18	=18	=18
(<8D/L	[>4.a [<4.f#/	.	4.a/	wło-	.	4.d/	wło-	.
8C#X/	.	.	.	.	.	.	.	.
8D/J	.	.	.	.	.	.	.	.
4DD/)	8a]L 8f#/]	.	4.a/	-ści,	.	4.d/	-ści,	.
.	8d/	.	.	.	.	.	.	.
8r	8dd/J	.	.	.	.	.	.	.
(<8D/L	(>4.a (<4.f#/	.	4r	.	.	4r	.	.
8C#/	.	.	.	.	.	.	.	.
8D/J	.	.	8r	.	.	8r	.	.
4.GG^>/)	8bL) 8g/)	.	8b/	Rę-	.	8g/	Rę-	.
.	8a 8f#/	.	8a/	-ką	.	8f#/	-ką	.
.	8bJ 8fn/	.	8b/	dwóch	.	8fn/	dwóch	.
=19	=19	=19	=19	=19	=19	=19	=19	=19
*	*ped	*	*	*	*	*	*	*
(<8C/L	4.cc 4.e/	.	2.cc\	go-	.	2.e/	go-	.
8BB/	.	.	.	.	.	.	.	.
8C/J	.	.	.	.	.	.	.	.
4CC/)	8ccL 8e/	.	.	.	.	.	.	.
.	8g 8e/	.	.	.	.	.	.	.
8r	8ccJ 8g/	.	.	.	.	.	.	.
(<8C/L	4ee 4g/	.	4.cc\	-ści,	.	4.e/	-ści,	.
8BB/	.	.	.	.	.	.	.	.
8C/J	8r	.	.	.	.	.	.	.
4CC/)	4g 4e/	.	8g/	Du-	.	8e/	Du-	.
.	.	.	8g/	-szę	.	8e/	-szę	.
*	*Xped	*	*	*	*	*	*	*
8r	8a 8f#/	.	8g/	mu	.	8f#/	mu	.
=20	=20	=20	=20	=20	=20	=20	=20	=20
*	*ped	*	*	*	*	*	*	*
(>8G\L	[>4.b [<4.g/	.	[>4.b\	wléj!	.	[<4.g/	wléj!	.
8F#\	.	.	.	.	.	.	.	.
8G\J	.	.	.	.	.	.	.	.
4GG/)	8b]L 8g/]	.	4.b\]	.	.	4.g/]	.	.
.	8d/	.	.	.	.	.	.	.
8r	8dd/J	.	.	.	.	.	.	.
(>8G\L	4.b 4.g/	.	4r	.	.	4r	.	.
8F#\	.	.	.	.	.	.	.	.
8G\J	.	.	2r	.	.	8r	.	.
!	!	!	!	!	!	!	!	!LO:DY:a
4GG/)	8bL 8d/	<	.	.	.	8b\	U-	f
.	8b 8d/	.	.	.	.	8b\	-proś	.
*	*Xped	*	*	*	*	*	*	*
8r	8bJ 8d/	[	.	.	.	8b\	nie-	.
!!LO:LB:g=original
=21	=21	=21	=21	=21	=21	=21	=21	=21
*xywh-#62:434,1334,2009,426	*xywh-#62:434,1334,2009,426	*	*xywh-#62:406,1143,1919,232	*	*	*xywh-#62:370,962,2019,247	*	*
(>8F#\L	4.b 4.d/	.	2.r	.	.	4.b\	-bio-	.
8E#X\	.	.	.	.	.	.	.	.
8F#\J	.	.	.	.	.	.	.	.
4FF#/)	8bL 8d/	.	.	.	.	4.b\	-sy	.
.	8b 8d/	.	.	.	.	.	.	.
8r	8bJ 8d/	.	.	.	.	.	.	.
(>8F#\L	4.a#X 4.c#X/	.	(<8f#/L	O	.	4.a#X/	O	.
8E#\	.	.	8e#X/	.	.	.	.	.
8F#\J	.	<	8f#/J)	.	.	.	.	.
4FF#/)	8a#L 8c#/	.	(<8f#/L	kro-	.	(>8a#\L	kro-	.
.	8cc 8a#/	.	8a#X/J)	.	.	8cc#X\J)	.	.
8r	8eeJ 8cc/	[	8cc/	-plę	.	8ee\	-plę	.
=22	=22	=22	=22	=22	=22	=22	=22	=22
(>8F#\L	[>4.gg [<4.ee\	.	[>4.ee^>\	o	.	[>4.gg^>\	o	.
8E#X\	.	.	.	.	.	.	.	.
8F#\J	.	.	.	.	.	.	.	.
4FF#/)	8gg]L 8ee\]	.	8ee\]	.	.	8gg\]	.	.
.	8ff# 8dd\	.	8dd\	kro-	.	8ff#\	kro-	.
8r	8eeJ 8cc#X\	.	8cc#X\	-plę	.	8ee\	-plę	.
(>8B\L	4.ee 4.cc# 4.f#\	.	4.cc#^>\	ro-	.	4.ee^>\	ro-	.
8A#X\	.	.	.	.	.	.	.	.
8B\J	.	.	.	.	.	.	.	.
4BB/)	4dd 4b\	.	4dd\	-sy,	.	4dd\	-sy;	.
8r	8r	.	8r	.	.	8r	.	.
=23	=23	=23	=23	=23	=23	=23	=23	=23
(>8c\L	[>4.ee [<4.cc\	p	[>4.ccn\	O	.	[>4.ee\	O	.
8B\	.	.	.	.	.	.	.	.
8c\J	.	.	.	.	.	.	.	.
4D\)	(>8ee]L 8cc\]	.	8cc\]	.	.	8ee\]	.	.
.	8ff# 8dd\	.	8dd\	kro-	.	8ff#\	kro-	.
8r	8eeJ 8cc\)	.	8cc\	-plę	.	8ee\	-plę	.
(>8B\L	4.dd 4.b\	.	4.b\	ro-	.	4.dd\	ro-	.
8A#X\	.	.	.	.	.	.	.	.
8B\J	.	.	.	.	.	.	.	.
4D\)	8r	.	4g\	-sy:	.	4b\	-sy:	.
.	(>8dd\L	.	.	.	.	.	.	.
8r	8ddd\J)	.	8r	.	.	8r	.	.
=24	=24	=24	=24	=24	=24	=24	=24	=24
(>8c\L	[>4.ee-X [<4.cc\	pp	4.cc\	Miéj	.	4.ee-X\	Miéj	.
8B\	.	.	.	.	.	.	.	.
8c\J	.	.	.	.	.	.	.	.
4D\)	(>8ee-]L 8cc\]	.	(>8cc\L	li-	.	(>8ee-\L	li-	.
.	8ffn 8dd\	.	8dd\J)	.	.	8ffn\J)	.	.
8r	8ee-J 8cc\	.	8cc\	-tość,	.	8ee-\	-tość,	.
(>8B\L	4.dd) 4.b\	.	(>4.b\	miéj;	.	(>4.dd\	miéj;	.
8A#X\	.	.	.	.	.	.	.	.
8B\J	.	.	.	.	.	.	.	.
4D\)	8r	.	4g/)	.	.	4b\)	.	.
.	(>8gg\L	.	.	.	.	.	.	.
8ryy	8ggg\J)	.	8r	.	.	8r	.	.
!!LO:LB:g=original
=25	=25	=25	=25	=25	=25	=25	=25	=25
*xywh-#62:384,2074,2001,402	*xywh-#62:384,2074,2001,402	*	*xywh-#62:420,1930,1950,196	*	*	*xywh-#62:438,1733,1963,240	*	*
8d^>\L	(>4.a 4.f#/	.	4.d/	Ma-	.	4.a^>\	Ma-	.
8c#X\	.	.	.	.	.	.	.	.
8cn\J	.	.	.	.	.	.	.	.
8B\L	8bL 8g\	.	(<8g/L	-tko	.	(>8b\L	-tko	.
8A\	8cc 8a\	.	8a/J)	.	.	8cc\J)	.	.
8G\J	8ddJ 8b\)	.	8b/	mi-	.	8dd\	mi-	.
8d\L 8D\	(>4.a 4.f#/	.	4d/	-ło-	.	4a/	-ło-	.
8c#X\	.	.	.	.	.	.	.	.
8cn\J	.	.	8d/	-ści,	.	8a/	-ści,	.
8B\L	8bL 8g\	.	8g/	Z nad-	.	8b\	Z nad-	.
8A\	8cc 8a\	.	8a/	-ziem-	.	8cc\	-ziem-	.
8G\J	8ddJ 8b\)	.	8b/	-skich	.	8dd\	-skich	.
=26	=26	=26	=26	=26	=26	=26	=26	=26
(>\8dL 8D\	(>8aL 8f#\	<	8f#/	włoś-	.	8a\	włoś-	.
8c#X\	8g 8e\	.	8e/	-ci,	.	8g\	-ci,	.
8cn\J	8aJ 8f#\	.	8f#/	Rę-	.	8a\	Rę-	.
8B\L	8bL 8g\	.	8g/	-ką	.	8b\	-ką	.
8A\	8cc 8a\	.	8a/	dwóch	.	8cc\	dwóch	.
16G\L	8ddJ 8b\	.	8b\	goś-	.	8dd\	goś-	.
16F#\JJ	.	.	.	.	.	.	.	.
8E\L	8eeL 8cc\	.	8cc\	-ci,	.	8ee\	-ci,	.
8D\	8ff# 8dd\	.	(>8dd\	Du-	.	(>8ff#\	Du-	.
8C\J)	8ggJ 8ee\)	[	8ee\)	.	.	8gg\)	.	.
!	!LO:TX:b:i:t=rall.	!	!LO:TX:a:i:t=rall.	!	!LO:DY:a	!LO:TX:a:i:t=rall.	!	!LO:DY:a
4D\	4b 4g 4d/	p	4g/	-szę	p	4b\	-szę	p
8DD/	8a 8f# 8d/	.	8f#/	mu	.	8a\	mu	.
=27	=27	=27	=27	=27	=27	=27	=27	=27
!	!LO:TX:b:i:t=sotto voce.	!	!	!	!	!	!	!
4.GG/	4.g 4.d 4.B/	.	4.g/	wlej!	.	4.g/	wlej!	.
4G 4GG\	4b 4g/	.	8g/	du-	.	8b\	du-	.
.	.	.	8g/	-szę	.	8b\	-szę	.
8G 8GG\	8dd 8b\	.	8b\	mu	.	8dd\	mu	.
4.G 4.GG;>\	4.gg 4.b;<\	.	4.b;>\	wléj!	.	4.gg;>\	wléj!	.
4r	4r	.	4r	.	.	4r	.	.
8r	8r	.	8r	.	.	8r	.	.
!!LO:LB:g=original
=28	=28	=28	=28	=28	=28	=28	=28	=28
*xywh-#62:392,2759,2009,454	*xywh-#62:392,2759,2009,454	*	*xywh-#62:423,2573,1968,240	*	*	*xywh-#62:420,2423,1924,232	*	*
(>16d\LL	[>4.dd [>4.a [<4.f#/	f	1.r	.	.	1.r	.	.
16c#X\	.	.	.	.	.	.	.	.
16d\	.	.	.	.	.	.	.	.
16e\	.	.	.	.	.	.	.	.
16d\	.	.	.	.	.	.	.	.
16c#\JJ	.	.	.	.	.	.	.	.
4.d\)	8dd]L 8a] 8f#/]	.	.	.	.	.	.	.
.	8dd 8a 8f#/	.	.	.	.	.	.	.
.	8ddJ 8a 8f#/	.	.	.	.	.	.	.
(>16d\LL	[>4.ee 4.b [<4.g/	.	.	.	.	.	.	.
16c#\	.	.	.	.	.	.	.	.
16d\	.	.	.	.	.	.	.	.
16e\	.	.	.	.	.	.	.	.
16d\	.	.	.	.	.	.	.	.
16c#\JJ	.	.	.	.	.	.	.	.
4.d\)	8ee]L 8b-X 8g\]	<	.	.	.	.	.	.
.	8ff# 8a\	[ >	.	.	.	.	.	.
.	8eeJ 8g\	]	.	.	.	.	.	.
=29	=29	=29	=29	=29	=29	=29	=29	=29
16D\LL	[>4.dd [<4.f#\	.	1.r	.	.	1.r	.	.
16F#\	.	.	.	.	.	.	.	.
16G\	.	.	.	.	.	.	.	.
16A\	.	.	.	.	.	.	.	.
16B\	.	.	.	.	.	.	.	.
16c#X\JJ	.	.	.	.	.	.	.	.
8d\L	16dd]LL 16f#\]	.	.	.	.	.	.	.
.	(>16f#\	.	.	.	.	.	.	.
8A\	16g\	.	.	.	.	.	.	.
.	16a\	.	.	.	.	.	.	.
8F#\J	16bn\	.	.	.	.	.	.	.
.	16cc#X\JJ	.	.	.	.	.	.	.
[>4.D\	16dd\LL	.	.	.	.	.	.	.
.	16ff#\	.	.	.	.	.	.	.
.	16gg\	.	.	.	.	.	.	.
.	16aa\	.	.	.	.	.	.	.
.	16bb\	.	.	.	.	.	.	.
.	16ccc#X\JJ	.	.	.	.	.	.	.
8D\L]	4ddd\)	.	.	.	.	.	.	.
8F#\	.	.	.	.	.	.	.	.
8D\J	8r	.	.	.	.	.	.	.
=30	=30	=30	=30	=30	=30	=30	=30	=30
*^	*	*	*	*	*	*	*	*
*	*xywh-#62:392,2759,2009,454	*xywh-#62:392,2759,2009,454	*	*	*	*	*	*	*
16d/LL	4D\	[>4.dd [<4.f#\	.	8dd\	A-	.	4r	.	.
16c#X/	.	.	.	.	.	.	.	.	.
16d/	.	.	.	8f#/	-niel-	.	.	.	.
16e/	.	.	.	.	.	.	.	.	.
16d/	8r	.	.	8a/	-ska	.	8r	.	.
16c#/JJ	.	.	.	.	.	.	.	.	.
!	!	!	!	!LO:N:vis=4	!	!	!	!	!
4d/	4d\	8dd]L 8f#\]	.	4.dd\	Pa-	.	8r	.	.
.	.	8a\	.	.	.	.	(>8a\L	A-	.
8r	8ryy	8ff#\J	.	.	.	.	8ff#\J)	.	.
(>16A\LL	4ryy	[>4.ee 4.cc#X [<4.a\	.	(>8cc#X\L	-ni	.	4.ee\	-niel-	.
16G#X\	.	.	.	.	.	.	.	.	.
16A\	.	.	.	8a\J)	.	.	.	.	.
16B\	.	.	.	.	.	.	.	.	.
16A\	2ryy	.	.	8b/	Skłoń	.	.	.	.
16G#\JJ	.	.	.	.	.	.	.	.	.
4.A\)	.	8ee]L 8cc# 8a\]	.	4a/	rę-	.	8ee\	-ska	.
.	.	8ff# 8a\	.	.	.	.	8ff#\	Pa-	.
.	.	8eeJ 8g\	.	8g/	-kę	.	8ee\	-ni	.
*v	*v	*	*	*	*	*	*	*	*
!!LO:PB:g=original
=31	=31	=31	=31	=31	=31	=31	=31	=31
*xywh-#63:121,502,1947,408	*xywh-#63:121,502,1947,408	*	*xywh-#63:165,362,1950,219	*	*	*xywh-#63:111,171,1996,245	*	*
8D\L	[>4.dd\ [<4.f#\	.	[<4.f#/	twą	.	[>4.dd\	Skłoń	.
8F#\	.	.	.	.	.	.	.	.
8A\J	.	.	.	.	.	.	.	.
(>4.d\	(>8dd]L 8f#\]	.	4f#/]	.	.	8dd\]	.	.
.	8ff#\	.	.	.	.	8f#/	rę-	.
.	8aa\J	.	8r	.	.	8a/	-kę	.
8D\)	8ddd\)	.	4r	.	.	4.dd\	twą!	.
8r	8r	.	.	.	.	.	.	.
8r	8r	.	8r	.	.	.	.	.
4r	8ddL 8f#\	.	8b\	Świę-	.	8dd\	Świę-	.
.	8dd 8f#\	.	8b\	-ci	.	8dd\	-ci	.
8r	8cc#XJ 8e\	.	8f#/	wy-	.	8cc#X\	wy-	.
=32	=32	=32	=32	=32	=32	=32	=32	=32
*Xtremolo	*	*	*	*	*	*	*	*
(>8F#\L	[>4.b [<4.d\	f	[<4.d/	-bra-	.	[>4.b\	-bra-	.
8E#X\	.	.	.	.	.	.	.	.
8F#\J	.	.	.	.	.	.	.	.
4.FF#/)	8b]L 8d\]	.	4d/]	.	.	4b\]	.	.
.	8b\	.	.	.	.	.	.	.
.	8bb\J	.	8d/	-ni,	.	8b\	-ni,	.
(>8F#\L	[>4.a#X [<4.c#X/	.	4.f#/	Módl-	.	4.a#X^>/	Módl-	.
8E#\	.	.	.	.	.	.	.	.
8F#\J	.	.	.	.	.	.	.	.
4.FF#/)	8a#]L 8c#/]	.	(<8f#/L	-cie	.	(>8a#\L	-cie	.
.	8cc#X 8a#/	.	8a#X/J)	.	.	8cc#X\J)	.	.
.	8eeJ 8cc#/	.	8cc#X\	się	.	8ee\	się	.
=33	=33	=33	=33	=33	=33	=33	=33	=33
(>8F#\L	[>4.gg [<4.ee\	.	4.ee\	z nią!	.	4.gg\	z nią!	.
8E#X\	.	.	.	.	.	.	.	.
8F#\J	.	.	.	.	.	.	.	.
4.FF#/)	8gg]L 8ee\]	.	8ee\	Módl-	.	8gg\	Módl-	.
.	8ff# 8dd\	.	8dd\	-cie	.	8ff#\	-cie	.
.	8eeJ 8cc\	.	8cc#X\	się	.	8ee\	się	.
(>8B\L	(>4.ee (<4.cc\	.	(>4.cc#^>\	z nią!	.	(>4.ee^>\	z nią!	.
8A#X\	.	.	.	.	.	.	.	.
8B\J	.	.	.	.	.	.	.	.
4BB/)	4dd 4b\))	.	4dd\)	.	.	4dd\)	.	.
8r	8r	.	8r	.	.	8r	.	.
=34	=34	=34	=34	=34	=34	=34	=34	=34
(>8B\L	[>4.dd\ 4.g\ [<4.fn\	p	[>4.dd\	Świę-	p	1.r	.	.
8A#X\	.	.	.	.	.	.	.	.
8B\J	.	.	.	.	.	.	.	.
4BB/)	8dd]L 8g 8f\]	.	(>8dd\L]	-ci,	.	.	.	.
.	8ee 8g 8f\	.	8ee\J)	.	.	.	.	.
8r	8ddJ 8g 8f\	.	8dd\	wy-	.	.	.	.
(>8c\L	(>4.dd 4.g (<4.f\	.	4.dd^>\	-bra-	.	.	.	.
8B\	.	.	.	.	.	.	.	.
8c\J	.	.	.	.	.	.	.	.
4.C/)	4cc 4g 4e\))	.	4.cc\	-ni	.	.	.	.
.	8r	.	.	.	.	.	.	.
!!LO:LB:g=original
=35	=35	=35	=35	=35	=35	=35	=35	=35
*xywh-#63:175,1201,1886,342	*xywh-#63:175,1201,1886,342	*	*xywh-#63:202,1041,1840,184	*	*	*xywh-#63:177,875,1910,204	*	*
(>8A\L	[>4.cc 4.f# [<4.e/	.	4.cc^>\	módl-	.	1.r	.	.
8G#X\	.	.	.	.	.	.	.	.
8A\J	.	.	.	.	.	.	.	.
4AA/)	8cc]L 8f# 8e/]	.	(>8cc\L	-cie	.	.	.	.
.	8dd 8f# 8e/	.	8dd\J)	.	.	.	.	.
8r	8ccJ 8f# 8e/	.	8cc\	się	.	.	.	.
(>8G#\L	(>4.cc (<4.f# (<4.e/	.	(>4cc\	z nią	.	.	.	.
8F#\	.	.	.	.	.	.	.	.
8G#\J	.	.	8b\)	.	.	.	.	.
4GG/)	4b) 4g) 4d/)	.	8r	.	.	.	.	.
.	.	.	4r	.	.	.	.	.
8r	8r	.	.	.	.	.	.	.
=36	=36	=36	=36	=36	=36	=36	=36	=36
!	!	!	!	!	!	!	!	!LO:DY:a:rj
(>8E\L	4.b 4.g\	f	4.g/	Po-	.	4.b\	Po-	f
8D#X\	.	.	.	.	.	.	.	.
8E\J	.	.	.	.	.	.	.	.
4EE/)	(>8bL 8g\	.	(<8g/	-cie-	.	(>8b\	-cie-	.
.	8ee 8b\	.	8b\)	.	.	8ee\)	.	.
8r	8ggJ 8ee\)	.	8ee\	-cho	.	8gg\	-cho	.
(>8B\L	(>4.gg 4.ee 4.b\	.	4.ee\	ma-	.	4.gg\	ma-	.
8A#\	.	.	.	.	.	.	.	.
8B\J	.	.	.	.	.	.	.	.
4.BB/)	4.ff# 4.dd#X 4.b\)	.	4b\	-tek	.	4ff#\	-tek	.
.	.	.	8r	.	.	8r	.	.
=37	=37	=37	=37	=37	=37	=37	=37	=37
(>8c\L	[>4.g [<4.e\	p	(>4.cc\	skła-	.	(>4.ee\	skła-	.
8B\	.	.	.	.	.	.	.	.
8c\J	.	.	.	.	.	.	.	.
4.C/)	(>8g]L 8e\]	.	8e/)	.	.	8g/)	.	.
.	8cc 8g\	.	8g/	-dam	.	8cc\	-dam	.
.	8eeJ 8cc\	>	8cc\	ten	.	8ee\	ten	.
(>8G\L	4.ee 4.cc\	.	4.cc\	kwia-	.	4.ee^>\	kwia-	.
8F#\	.	.	.	.	.	.	.	.
8G\J	.	.	.	.	.	.	.	.
4GG/)	4dd 4b\)	]	4b\	-tek	.	4dd\	-tek	.
8r	8r	.	8r	.	.	8r	.	.
=38	=38	=38	=38	=38	=38	=38	=38	=38
!	!	!	!	!	!LO:DY:a	!	!	!LO:DY:a
(>8d\L	4.a 4.f#^>/	.	4.a/	U	mf	4.f#/	U	mf
8c#X\	.	.	.	.	.	.	.	.
8cn\J	.	.	.	.	.	.	.	.
8B\L	(>8bL 8g\	.	(>8b\L	two-	.	(<8g/L	two-	.
8A\	8cc 8a\	.	8cc\J)	.	.	8a/J)	.	.
8G\J)	8ddJ 8b\)	.	8dd\	-ich	.	8b\	-ich	.
(>8d\L	4.a 4.f#^>/	.	4.a/	nóg	.	4.f#/	nóg	.
8c#X\	.	.	.	.	.	.	.	.
8cn\J	.	.	.	.	.	.	.	.
8B\L	(>8bL 8g\	.	8b\	skła-	.	8g/	skła-	.
8A\	8cc 8a\	.	8cc\	-dam	.	8a/	-dam	.
8G\J)	8ddJ 8b\)	.	8dd\	ten	.	8b/	ten	.
=39	=39	=39	=39	=39	=39	=39	=39	=39
(>8d\L	(>8aL 8f#/	<	4.a/	kwia-	.	4.f#/	kwia-	.
8c#X\	8g 8e/	.	.	.	.	.	.	.
8cn\J	8aJ 8f#/	.	.	.	.	.	.	.
8B\L	8bL 8g\	.	(>8b\L	-tek	.	(<8g/L	-tek	.
8A\	8cc 8a\	.	8cc\J)	.	.	8a/J)	.	.
16G\L	8ddJ 8b\	.	8dd\	u	.	8b\	u	.
16F#\JJ	.	.	.	.	.	.	.	.
8E\L	8eeL 8cc\	.	(>8ee\L	two-	.	(>8cc\L	two-	.
8D\	8ff# 8dd\	.	8ff#\J)	.	.	8dd\J)	.	.
8C\J)	8ggJ 8ee\)	[	8gg\	-ich	.	8ee\	-ich	.
!	!LO:TX:b:i:t=rall.	!	!	!	!LO:DY:a	!	!	!LO:DY:a
4D\	4b 4g 4d/	p	4b\	two-	f	4gg\	two-	f
8DD/	8a 8f# 8d/	.	8a/	-ich	.	8ff#\	-ich	.
!!LO:LB:g=original
=40	=40	=40	=40	=40	=40	=40	=40	=40
*xywh-#63:167,1795,1951,405	*xywh-#63:167,1795,1951,405	*	*xywh-#63:194,1648,1883,206	*	*	*xywh-#63:176,1503,1876,215	*	*
4GG/	16g/LL	p	4.b\	nóg:	.	4.gg\	nóg:	.
.	16a/	.	.	.	.	.	.	.
.	16g/	.	.	.	.	.	.	.
.	16f#/	.	.	.	.	.	.	.
8r	16g/	.	.	.	.	.	.	.
.	16a/JJ	.	.	.	.	.	.	.
8d\L 8B\ 8G\	16b/LL	.	8r	.	.	8r	.	.
.	16cc/	.	.	.	.	.	.	.
8d\ 8B\ 8G\	16b/	.	1r	.	.	1r	.	.
.	16a/	.	.	.	.	.	.	.
8d\J 8B\ 8G\	16b/	.	.	.	.	.	.	.
.	16cc/JJ	.	.	.	.	.	.	.
4.d\ 4.B\ 4.G\	16dd\LL	.	.	.	.	.	.	.
.	16ee\	.	.	.	.	.	.	.
.	16dd\	.	.	.	.	.	.	.
.	16cc#X\	.	.	.	.	.	.	.
.	16dd\	.	.	.	.	.	.	.
.	16gg\JJ	.	.	.	.	.	.	.
8GG/	16bb\LL	.	.	.	.	.	.	.
.	16aa\	.	.	.	.	.	.	.
8r	16gg\	.	.	.	.	.	.	.
.	16ff#\	.	.	.	.	.	.	.
8r	16ee\	.	.	.	.	.	.	.
.	16dd\JJ	.	.	.	.	.	.	.
*clefG2	*	*	*	*	*	*	*	*
=41	=41	=41	=41	=41	=41	=41	=41	=41
*tremolo	*tremolo	*	*	*	*	*	*	*
!	!LO:TX:a:t=Oboe.	!	!	!	!	!	!	!
8cc#X\L	8aaL 8ee\	.	1.r	.	.	1.r	.	.
8cc#\	8aa 8ee\	.	.	.	.	.	.	.
8cc#\J	8aaJ 8ee\	.	.	.	.	.	.	.
*	*Xtremolo	*	*	*	*	*	*	*
4.cc#\	(>8aaL 8ee\	.	.	.	.	.	.	.
.	8bb\	.	.	.	.	.	.	.
.	8aaJ 8ee\)	.	.	.	.	.	.	.
*	*tremolo	*	*	*	*	*	*	*
!	!LO:TX:b:i:t=riten.	!	!	!	!	!	!	!
8ddL 8ccn^>\	8dddL 8ff#\	.	.	.	.	.	.	.
8dd 8cc\	8ddd 8ff#\	.	.	.	.	.	.	.
8ddJ 8cc\	8dddJ 8ff#\	.	.	.	.	.	.	.
*	*Xtremolo	*	*	*	*	*	*	*
4.dd 4.cc\	(>8dddL 8ff#\	.	.	.	.	.	.	.
.	8eee\	.	.	.	.	.	.	.
.	8dddJ 8ff#\)	.	.	.	.	.	.	.
*Xtremolo	*	*	*	*	*	*	*	*
=42	=42	=42	=42	=42	=42	=42	=42	=42
!	!	!	!	!	!LO:DY:a	!	!	!LO:DY:a
4b 4g/	4ddd 4gg\	.	8b\	Daj	pp	8dd\	Daj	pp
.	.	.	8b\	choć	.	8ee\	choć	.
8ryy	8ryy	.	8b\	go-	.	8dd\	go-	.
8r	8r	.	4b\	-dzi-	.	4dd\	-dzi-	.
8r	8r	.	.	.	.	.	.	.
(<8g'/L	(>8ddL 8b'\	.	8b\	-nę	.	8dd\	-nę	.
8g'/J	8ddJ 8b'\	.	8b\	niech	.	8dd\	niech	.
4g'/)	4dd 4b'\)	.	8b\	tę	.	8dd\	tę	.
.	.	.	8b\	dzie-	.	8gg\	dzie-	.
8r	8r	.	4b\	-ci-	.	4dd\	-ci-	.
(<8g'/L	(>8ddL 8b'\	.	.	.	.	.	.	.
8g'/J	8ddJ 8b'\	.	8b\	-nę,	.	8dd\	-nę,	.
=43	=43	=43	=43	=43	=43	=43	=43	=43
4.g'/)	4.dd 4.b'\)	.	8b\	Przez	.	8dd\	Przez	.
.	.	.	8b\	twą	.	8dd\	twą	.
.	.	.	8b\	przy-	.	8dd\	przy-	.
8r	8r	.	(>4.b\	-czy-	.	(>4.dd\	-czy-	.
8f#'/L	8ddL 8b\	.	.	.	.	.	.	.
8g'/J	8ddJ 8b\	.	.	.	.	.	.	.
4.g 4.G/	8ddL 8b\	.	8b\	.	.	8dd\	.	.
.	8cc#X 8a#X\	.	8a#X/)	.	.	8cc#X\)	.	.
.	8ccnJ 8an\	.	8an/	-nę	.	8ccn\	-nę	.
4r	8bL 8g\	.	8g/	Za-	.	8b\	Za-	.
.	8dd 8b\	.	8b/	-cho-	.	8dd\	-cho-	.
8r	8bJ 8g\	.	8g/	-wa	.	8b\	-wa	.
*clefF4	*	*	*	*	*	*	*	*
!!LO:LB:g=original
=44	=44	=44	=44	=44	=44	=44	=44	=44
*^	*	*	*	*	*	*	*	*
*xywh-#63:169,2461,1883,387	*xywh-#63:169,2461,1883,387	*xywh-#63:169,2461,1883,387	*	*xywh-#63:188,2319,1879,179	*	*	*xywh-#63:174,2162,1885,190	*	*
(<8d/L	4D\	(>4.a 4.f#/	.	4.f#/	Bóg!	.	4.a/	Bóg!	.
8c#X/	.	.	.	.	.	.	.	.	.
8cn/J	8ryy	.	.	.	.	.	.	.	.
8B/L	4.ryy	8bL 8g\	.	8g/	Daj	.	8b\	Daj	.
8A/	.	8cc 8a\	.	8a/	choć	.	8cc\	choć	.
8G/J)	.	8ddJ 8b\)	.	8b\	go-	.	8dd\	go-	.
(<8d/L	4D\	(>4.a 4.f#/	.	4f#/	-dzi-	.	4a^>/	-dzi-	.
8e/	.	.	.	.	.	.	.	.	.
8d/J	2ryy	.	.	8f#/	-nę	.	8a/	-nę	.
8B/L	.	8bL 8g\	.	8g/	niech	.	8b\	niech	.
8A/	.	8cc 8a\	.	8a/	tę	.	8cc\	tę	.
8G/J)	.	8ddJ 8b\)	.	8b\	dzie-	.	8dd\	dzie-	.
*v	*v	*	*	*	*	*	*	*	*
=45	=45	=45	=45	=45	=45	=45	=45	=45
*	*	*^	*	*	*	*	*	*
(>8d\L	(>8aL 8f#/	<	.	(<8f#/L	-ci-	.	(<8a/L	-ci-	.
8c#X\	8g 8e/	.	.	8e/J)	.	.	8g/J)	.	.
8cn\J)	8aJ 8f#/	.	.	8f#/	-nę	.	8a/	-nę	.
(>8B\L	8bL 8g\	.	.	8g/	przez	.	8b/	przez	.
8A\	8cc 8a\	.	.	8a/	twą	.	8cc\	twą	.
16G\L	8ddJ 8b\	.	.	8b\	przy-	.	8dd\	przy-	.
16F#\JJ	.	.	.	.	.	.	.	.	.
8E\L	8eeL 8cc\	.	.	8cc\	-czy-	.	8ee\	-czy-	.
8D\	8ff# 8dd\	.	.	8dd\	-nę	.	8ff#\	-nę	.
!	!	!LO:DY:rj	!	!	!	!	!	!	!
8C\J)	8ggJ 8ee\)	[ f	.	8ee\	za-	.	8gg\	za-	.
!	!	!	!LO:DY:a	!	!	!	!LO:TX:a:i:t=riten.	!	!
4D 4DD/	4b 4g 4d/	p	p	4g/	-cho-	.	4b/	-cho-	.
!	!LO:TX:b:i:t=riten.	!	!	!	!	!	!	!	!
8D\	8a 8f# 8d/	.	.	8d/	-wa	.	8a/	-wa	.
*	*	*v	*v	*	*	*	*	*	*
=46	=46	=46	=46	=46	=46	=46	=46	=46
4GG/	4.g 4.B/	.	4.B/	Bóg	.	4.g/	Bóg	.
8ryy	.	.	.	.	.	.	.	.
4r	4r	.	8g/	za-	.	8b\	za-	.
.	.	.	8g/	-cho-	.	8b\	-cho-	.
8r	8r	.	8b\	-wa	.	8dd\	-wa	.
!	!	!LO:DY:rj	!	!	!	!	!	!
4.d 4.G;>\	4.gg 4.b 4.g;>\	p	4.g;>/	Bóg!	.	4.gg;>\	Bóg!	.
!	!LO:TX:a:i:t=a tempo	!	!	!	!	!	!	!
4r	8d/L	<	8r	.	.	4r	.	.
.	8d/	.	4r	.	.	.	.	.
8r	8g/J	[	.	.	.	8r	.	.
!!LO:LB:g=original
=47	=47	=47	=47	=47	=47	=47	=47	=47
*	*^	*	*	*	*	*	*	*
*xywh-#63:120,2819,1955,419	*xywh-#63:120,2819,1955,419	*	*	*	*	*	*	*	*
4.G\	4.b 4.g/	2.ryy	p	1.ryy	.	.	1.ryy	.	.
(>8g\L	4b 4g/	.	.	.	.	.	.	.	.
8f#\	.	.	.	.	.	.	.	.	.
8fn\J)	8b 8g/	.	.	.	.	.	.	.	.
4.e\	4.b 4.g#X/	4.ryy	.	.	.	.	.	.	.
.	(<16qqbLL 16qqg#/	.	.	.	.	.	.	.	.
.	16qqccJJ 16qqa/	.	.	.	.	.	.	.	.
8E\L	8ddL 8b/	4.e\)	.	.	.	.	.	.	.
8F#\	8cc 8a/	.	.	.	.	.	.	.	.
8G#X\J	8bJ 8d/	.	.	.	.	.	.	.	.
*	*v	*v	*	*	*	*	*	*	*
=48	=48	=48	=48	=48	=48	=48	=48	=48
*^	*	*	*	*	*	*	*	*
*	*xywh-#63:120,2819,1955,419	*xywh-#63:120,2819,1955,419	*	*	*	*	*	*	*
4.ryy	4.A\	4.cc 4.a\	.	1.ryy	.	.	1.ryy	.	.
4.e/	(>8A\L	4.cc 4.a\	.	.	.	.	.	.	.
.	8G#y\	.	.	.	.	.	.	.	.
.	8Gn\J)	.	.	.	.	.	.	.	.
[>4.d/	4.F#\	4.cc 4.a\	.	.	.	.	.	.	.
4.d/]	(>8D\L	(>8ccL 8a\	.	.	.	.	.	.	.
.	8E\	8dd\	.	.	.	.	.	.	.
.	8F#\J)	8a\J)	.	.	.	.	.	.	.
=49	=49	=49	=49	=49	=49	=49	=49	=49	=49
*	*	*^	*	*	*	*	*	*	*
*	*	*xywh-#63:120,2819,1955,419	*xywh-#63:120,2819,1955,419	*	*	*	*	*	*	*
4.ryy	4.G\	4.b 4.g/	4.ryy	.	1.ryy	.	.	1.ryy	.	.
8B/L	4.BB\	8g/L	4.d\	<	.	.	.	.	.	.
8A#X/	.	8f#/	.	.	.	.	.	.	.	.
8B/J	.	8g/J	.	.	.	.	.	.	.	.
(>4c/	4C\	(>4a 4e/	4ryy	[ >	.	.	.	.	.	.
8G#X/	8D\	8b 8fn/	2ryy	.	.	.	.	.	.	.
4An/	4AA#X\	4cc 4e/	.	.	.	.	.	.	.	.
8A/)	8D\	8f#X 8c/	.	]	.	.	.	.	.	.
*v	*v	*	*	*	*	*	*	*	*	*
*	*v	*v	*	*	*	*	*	*	*
=50	=50	=50	=50	=50	=50	=50	=50	=50
4.G\	4.g 4.B/)	.	1.ryy	.	.	1.ryy	.	.
4D\	(>4b 4g/	p	.	.	.	.	.	.
8BB/	8dd 8b/	.	.	.	.	.	.	.
4.G 4.GG\	4.gg 4.b 4.g\)	.	.	.	.	.	.	.
4r	4r	.	.	.	.	.	.	.
8r	8r	.	.	.	.	.	.	.
==	==	==	==	==	==	==	==	==
*-	*-	*-	*-	*-	*-	*-	*-	*-
!!!system-decoration: g1{(s3,s4)}
!!!RDF**kern: > = above
!!!RDF**kern: < = below
!!!ENC: Anastazja Marusiak
!!!END: 2022-02-22
!!!EED: Antoni Szymański
!!!EEV: 2022-02-28
!!!ENC-iiif: Bartosz Żurakowski
!!!END-iiif: 2022-09-05
